storage/app/icons/phosphoricons/duotone/math-operations-duotone.svg

<svg xmlns="http://www.w3.org/2000/svg" fill="currentColor" viewBox="0 0 256 256"><path d="M216 56v144a16 16 0 0 1-16 16H56a16 16 0 0 1-16-16V56a16 16 0 0 1 16-16h144a16 16 0 0 1 16 16" opacity=".2"/><path d="M112 72a8 8 0 0 1-8 8H40a8 8 0 0 1 0-16h64a8 8 0 0 1 8 8m-8 104H80v-24a8 8 0 0 0-16 0v24H40a8 8 0 0 0 0 16h24v24a8 8 0 0 0 16 0v-24h24a8 8 0 0 0 0-16m48 0h64a8 8 0 0 0 0-16h-64a8 8 0 0 0 0 16m64 16h-64a8 8 0 0 0 0 16h64a8 8 0 0 0 0-16m-61.66-90.34a8 8 0 0 0 11.32 0L184 83.31l18.34 18.35a8 8 0 0 0 11.32-11.32L195.31 72l18.35-18.34a8 8 0 0 0-11.32-11.32L184 60.69l-18.34-18.35a8 8 0 0 0-11.32 11.32L172.69 72l-18.35 18.34a8 8 0 0 0 0 11.32"/></svg>

<svg xmlns="http://www.w3.org/2000/svg" viewBox="0 0 256 256" fill="currentColor"><path d="M216,56V200a16,16,0,0,1-16,16H56a16,16,0,0,1-16-16V56A16,16,0,0,1,56,40H200A16,16,0,0,1,216,56Z" opacity="0.2"/><path d="M112,72a8,8,0,0,1-8,8H40a8,8,0,0,1,0-16h64A8,8,0,0,1,112,72Zm-8,104H80V152a8,8,0,0,0-16,0v24H40a8,8,0,0,0,0,16H64v24a8,8,0,0,0,16,0V192h24a8,8,0,0,0,0-16Zm48,0h64a8,8,0,0,0,0-16H152a8,8,0,0,0,0,16Zm64,16H152a8,8,0,0,0,0,16h64a8,8,0,0,0,0-16Zm-61.66-90.34a8,8,0,0,0,11.32,0L184,83.31l18.34,18.35a8,8,0,0,0,11.32-11.32L195.31,72l18.35-18.34a8,8,0,0,0-11.32-11.32L184,60.69,165.66,42.34a8,8,0,0,0-11.32,11.32L172.69,72,154.34,90.34A8,8,0,0,0,154.34,101.66Z"/></svg>
